X:1
T:Levi, 77.75 D
T:George Bennard, 1910
T:Levi, 77.75 D
T:Public Domain
C:George Bennard, 1910
Z:Public Domain
%%score 1 2
L:1/8
M:3/4
K:Bb
V:1 treble 
V:2 bass 
V:1
 [DF]>[^C=E] [_EG]3 [DF] | [DF]>[^C=E] [=C_E]4 | [CE]>[DF] [EG]3 [EA] | [EG]>[DF] [DF]4 | %4
 [DB]>[CA] [Ec]3 [DB] | [FA]>[EG] [EG]4 | [=Ec]3 [EG] [Ec]>[EG] | [Ec]6 | [DF]>[^C=E] [_EG]3 [DF] | %9
 [DF]>[^C=E] [=C_E]4 | [CE]>[DF] [EG]3 [EA] | [EG]>[DF] [DF]4 | [DB]>[CA] [Ec]3 [DB] | %13
 [FA]>[EG] [EG]4 | [DF]2 [EG]2 [EA]2 | [Ec]2 [DB]4 |] %16
V:2
 [B,,B,]>[B,,B,] [B,,B,]3 [B,,B,] | [B,,B,]>[B,,B,] [F,,F,A,]4 | %2
 [F,,F,A,]>[F,,F,A,] [F,,F,A,]3 [F,,F,A,] | [F,,F,A,]>[B,,B,] [B,,B,]4 | %4
 [B,,F,]>[B,,F,] [B,,F,]3 [B,,F,] | [E,B,]>[E,B,] [E,B,]4 | [C,G,]3 [C,G,] [C,G,]>[C,G,] | %7
 [F,,F,A,]6 | [B,,B,]>[B,,B,] [B,,B,]3 [B,,B,] | [B,,B,]>[B,,B,] [F,,F,B,]4 | %10
 [F,,F,A,]>[F,,F,A,] [F,,F,A,]3 [F,,F,A,] | [F,,F,A,]>[B,,B,] [B,,B,]4 | %12
 [B,,F,]>[B,,F,] [B,,F,]3 [B,,F,] | [E,B,]>[E,B,] [E,B,]4 | [B,,F,B,]2 [B,,F,]2 [F,,F,A,]2 | %15
 [F,,F,A,]2 [B,,F,]4 |] %16

